images/icons/qgis_mime_icon.svg

<svg height="256" viewBox="0 0 256 256" width="256" xmlns="http://www.w3.org/2000/svg" xmlns:xlink="http://www.w3.org/1999/xlink"><linearGradient id="a" gradientUnits="userSpaceOnUse" x1="26.2" x2="121.409" y1="126.663" y2="126.663"><stop offset="0" stop-color="#b7b7b7"/><stop offset="1" stop-color="#e6e6e6"/></linearGradient><linearGradient id="b"><stop offset="0" stop-color="#589632"/><stop offset="1" stop-color="#93b023"/></linearGradient><linearGradient id="c" gradientUnits="userSpaceOnUse" x1="189.008" x2="187.111" xlink:href="#b" y1="222.708" y2="98.016"/><linearGradient id="d" gradientUnits="userSpaceOnUse" x1="151.854" x2="149.973" xlink:href="#b" y1="224.654" y2="101.003"/><path d="m0 0h256v256h-256z" fill="#fff"/><path d="m240.421 245.675h-202.32c-11.901 0-23.539-16.907-23.803-29.753v-196.37h226.123z" fill="url(#a)"/><path d="m240.421 245.675h-202.32c-11.901 0-23.539-16.907-23.803-29.753v-196.37h226.123z" fill="none" stroke="#9a9a9a" stroke-width="9"/><path d="m61.903 13.601c-11.901-11.901-35.703-11.901-47.605 0v190.42c11.902-11.902 35.704-11.902 47.605 0z" fill="#e6e6e6"/><path d="m61.903 13.601c-11.901-11.901-35.703-11.901-47.605 0v190.42c11.902-11.902 35.704-11.902 47.605 0z" fill="none" stroke="#9a9a9a" stroke-width="10"/><path d="m155.875 163.917h18.059l-15.284-15.111h-18.726v17.992l15.951 15.898z" fill="#ee7913"/><path d="m213.799 203.327-32.221-31.854h-18.149v18.753l30.877 30.774h19.493z" fill="url(#c)"/><path d="m163.429 171.473h18.149l-7.644-7.556h-18.059v18.779l7.554 7.53z" fill="#f0e64a"/><path d="m159.661 196.641c-2.738.631-5.582.972-8.516.972-20.99 0-38.844-17.26-38.844-39.64 0-22.381 17.655-39.262 38.844-39.262 21.187 0 38.057 16.879 38.057 39.262 0 3.638-.452 7.142-1.29 10.459l19.428 19.426c5.009-8.777 7.811-18.982 7.811-30.035 0-34.495-27.528-60.322-64.398-60.322-36.704 0-64.23 25.658-64.23 60.322 0 34.832 27.526 61 64.23 61 9.474 0 18.329-1.743 26.261-4.915z" fill="url(#d)"/><path d="m139.924 148.806 73.875 72.194v-17.673l-32.221-31.854-7.644-7.556-15.284-15.111z" fill="#fff" fill-opacity=".172"/></svg>

<?xml version="1.0" encoding="UTF-8"?>
<!DOCTYPE svg PUBLIC "-//W3C//DTD SVG 1.1//EN" "http://www.w3.org/Graphics/SVG/1.1/DTD/svg11.dtd">
<svg version="1.1" xmlns="http://www.w3.org/2000/svg" xmlns:xlink="http://www.w3.org/1999/xlink" x="0" y="0" width="256" height="256" viewBox="0, 0, 256, 256">
  <g id="Background">
    <rect x="0" y="0" width="256" height="256" fill="#FFFFFF"/>
  </g>
  <defs>
    <linearGradient id="Gradient_1" gradientUnits="userSpaceOnUse" x1="26.2" y1="134.663" x2="121.409" y2="134.663" gradientTransform="matrix(1, 0, 0, 1, 0, -8)">
      <stop offset="0" stop-color="#B7B7B7"/>
      <stop offset="1" stop-color="#E6E6E6"/>
    </linearGradient>
    <linearGradient id="Gradient_2" gradientUnits="userSpaceOnUse" x1="189.008" y1="222.708" x2="187.111" y2="98.016">
      <stop offset="0" stop-color="#589632"/>
      <stop offset="1" stop-color="#93B023"/>
    </linearGradient>
    <linearGradient id="Gradient_3" gradientUnits="userSpaceOnUse" x1="151.854" y1="224.654" x2="149.973" y2="101.003">
      <stop offset="0" stop-color="#589632"/>
      <stop offset="1" stop-color="#93B023"/>
    </linearGradient>
  </defs>
  <g id="Background"/>
  <g id="Layer_1">
    <g id="path7">
      <path d="M240.421,245.675 L38.101,245.675 C26.2,245.675 14.562,228.768 14.298,215.922 L14.298,19.552 L240.421,19.552 z" fill="url(#Gradient_1)"/>
      <path d="M240.421,245.675 L38.101,245.675 C26.2,245.675 14.562,228.768 14.298,215.922 L14.298,19.552 L240.421,19.552 z" fill-opacity="0" stroke="#9A9A9A" stroke-width="9"/>
    </g>
    <g id="path9">
      <path d="M61.903,13.601 C50.002,1.7 26.2,1.7 14.298,13.601 L14.298,204.021 C26.2,192.119 50.002,192.119 61.903,204.021 z" fill="#E6E6E6"/>
      <path d="M61.903,13.601 C50.002,1.7 26.2,1.7 14.298,13.601 L14.298,204.021 C26.2,192.119 50.002,192.119 61.903,204.021 z" fill-opacity="0" stroke="#9A9A9A" stroke-width="10"/>
    </g>
  </g>
  <g id="Layer_3">
    <path d="M155.875,163.917 L173.934,163.917 L158.65,148.806 L139.924,148.806 L139.924,166.798 L155.875,182.696 z" fill="#EE7913" id="polygon3"/>
    <path d="M213.799,203.327 L181.578,171.473 L163.429,171.473 L163.429,190.226 L194.306,221 L213.799,221 z" fill="url(#Gradient_2)" id="polygon10"/>
    <path d="M163.429,171.473 L181.578,171.473 L173.934,163.917 L155.875,163.917 L155.875,182.696 L163.429,190.226 z" fill="#F0E64A" id="polygon12"/>
    <path d="M159.661,196.641 C156.923,197.272 154.079,197.613 151.145,197.613 C130.155,197.613 112.301,180.353 112.301,157.973 C112.301,135.592 129.956,118.711 151.145,118.711 C172.332,118.711 189.202,135.59 189.202,157.973 C189.202,161.611 188.75,165.115 187.912,168.432 L207.34,187.858 C212.349,179.081 215.151,168.876 215.151,157.823 C215.151,123.328 187.623,97.501 150.753,97.501 C114.049,97.501 86.523,123.159 86.523,157.823 C86.523,192.655 114.049,218.823 150.753,218.823 C160.227,218.823 169.082,217.08 177.014,213.908 L159.661,196.641 z" fill="url(#Gradient_3)" id="path19"/>
    <path d="M139.924,148.806 L213.799,221 L213.799,203.327 L181.578,171.473 L173.934,163.917 L158.65,148.806 z" fill="#FFFFFF" fill-opacity="0.172" id="polygon4153"/>
  </g>
</svg>
